X:1
T:First Set Tune
C:from the playing of Sally Sloane
M:4/4
L:1/8
K:G
[|"G"G2 Bc d2 Bd|b2 ag a2 g2|"D"A2 Bc f2>e2|de cd "G"B3A|
|"G"G2 Bc d2 Bd|b2 ag a2 g2|"D"A2 Bc f2>e2|dd/d/ ef "G"g3B|
|:"G"de dB de dB|dg "D"fe fe d2|"G"de dB de dB|db ba g3B:|